src/img/logo-krig.svg

<svg viewBox="0 0 701.5 437.63" xmlns="http://www.w3.org/2000/svg"><g fill="#fff"><path d="m533.77 360.36c-35.37 0-68.08-8.29-90.92-21.49-18-10.41-27.56-22.45-27.58-34.81 0-14 11.54-27.82 34.36-41.08 30.83-17.91 71.44-28.15 114.36-28.82 40.92-.64 79.47 7.7 105.75 22.87 21.67 12.47 33.48 28.83 31.57 43.74a.75.75 0 0 1 -.71.65l-62.86 3a.71.71 0 0 1 -.6-.26.75.75 0 0 1 -.17-.63c1.37-7.35-5.86-16.78-18.41-24-33.39-19.27-86.39-12.41-116.35 5-11.14 6.48-16.79 12.88-16.78 19 0 5.25 4.23 10.35 12.56 15.16 17.1 9.88 40.85 12.11 63.85 6.06l-27-15.55a.75.75 0 0 1 .12-1.35l43.47-15.78a.75.75 0 0 1 .63.06l64.23 37.08a.75.75 0 0 1 0 1.3l-4.65 2.7c-32.92 19.16-70.17 27.15-104.87 27.15zm34.6-124.74c-1.46 0-2.91 0-4.37 0-42.66.67-83 10.83-113.63 28.62-22 12.79-33.63 26.54-33.61 39.78 0 11.8 9.29 23.38 26.83 33.51 44.89 25.94 128.26 32.77 194.34-5.67l3.53-2-62.8-36.26-41.66 15.11 27.12 15.65a.75.75 0 0 1 -.17 1.37c-23.91 6.74-48.86 4.6-66.74-5.73-8.82-5.09-13.3-10.63-13.31-16.45 0-6.71 5.89-13.55 17.53-20.32 30.32-17.62 84-24.54 117.85-5 12.6 7.28 20 16.85 19.26 24.67l61.35-2.9c1.42-14.13-10.08-29.64-30.9-41.63-25.13-14.54-61.6-22.74-100.62-22.74z"/><path d="m342.29 278a.75.75 0 0 1 -.37-.1l-42.76-24.68a.75.75 0 0 1 .12-1.35l218.92-79.31a.74.74 0 0 1 .63.06l42.75 24.69a.75.75 0 0 1 -.12 1.35l-218.91 79.3a.74.74 0 0 1 -.26.04zm-41-25.27 41.06 23.7 217.07-78.63-41.05-23.71z"/><path d="m359.14 161.92c-4.35 0-8.34-.72-11.33-2.45l-24.06-13.89a.75.75 0 0 1 .12-1.35l39.46-14.29a.75.75 0 0 1 .63.06l24.04 13.88c2.46 1.42 3.61 3.07 3.4 4.9a.65.65 0 0 1 0 .28c-.37 1.9-2.26 3.86-5.63 5.82a58.92 58.92 0 0 1 -26.63 7.04zm-33.24-16.83 22.66 13.08c8.75 5.05 27.46.66 36.49-4.59 3.45-2 4.56-3.57 4.86-4.58a.65.65 0 0 1 0-.21c.23-1.25-.66-2.47-2.64-3.61l-23.76-13.72z"/><path d="m282.74 243.63a.75.75 0 0 1 -.37-.1l-45.56-26.32a.75.75 0 0 1 -.09-1.24l62.65-49.2-13.44-7.77-91.93 33.33a.75.75 0 0 1 -.63-.06l-42.29-24.55a.75.75 0 0 1 .12-1.35l218.9-79.3a.74.74 0 0 1 .63.06l76.13 44c10.3 5.95 15.53 12.56 15.54 19.65 0 8.1-6.89 16.41-20 24-21.64 12.57-59.18 21.85-94.39 14.33l-64.84 54.38a.75.75 0 0 1 -.43.14zm-44.23-27.16 44.15 25.53 64.72-54.28a.74.74 0 0 1 .64-.16c34.92 7.58 72.21-1.61 93.67-14.09 12.58-7.31 19.23-15.16 19.21-22.7 0-6.52-5-12.7-14.79-18.36l-75.82-43.82-217.07 78.64 40.6 23.57 91.93-33.33a.75.75 0 0 1 .63.06l14.7 8.51a.75.75 0 0 1 .09 1.24z"/><path d="m134.15 157.82a.75.75 0 0 1 -.37-.1l-45.32-26.16a.75.75 0 0 1 -.07-1.25l72.1-52.71-40.39.24-76.35 27.61a.75.75 0 0 1 -.63-.06l-42.74-24.69a.75.75 0 0 1 .12-1.35l218.9-79.35a.74.74 0 0 1 .6.1l42.76 24.68a.75.75 0 0 1 -.12 1.35l-59.79 21.59 98.58-.51a.61.61 0 0 1 .38.1l48.12 27.78a.75.75 0 0 1 -.37 1.4l-106.17.68-108.8 80.5a.75.75 0 0 1 -.44.15zm-43.94-27 43.89 25.34 108.6-80.34a.75.75 0 0 1 .44-.15l103.65-.67-45.55-26.3-102.74.53a.75.75 0 0 1 -.25-1.46l62.4-22.51-41.06-23.69-217.07 78.64 41.05 23.71 76.14-27.53a.75.75 0 0 1 .25 0l42.84-.26a.7.7 0 0 1 .72.52.75.75 0 0 1 -.27.84z"/><path d="m219.21 78.69a.75.75 0 0 1 -.75-.75l.45-77.19a.75.75 0 0 1 .75-.75.75.75 0 0 1 .75.75l-.41 77.2a.75.75 0 0 1 -.79.74z"/><path d="m262.2 103.43a.78.78 0 0 1 -.75-.75l.22-77.25a.75.75 0 0 1 .75-.75.75.75 0 0 1 .75.75l-.17 77.25a.75.75 0 0 1 -.8.75z"/><path d="m301.44 125.9a.75.75 0 0 1 -.75-.75v-77.15a.75.75 0 0 1 1.5 0v77.19a.75.75 0 0 1 -.75.71z"/><path d="m349.55 153.68a.75.75 0 0 1 -.75-.75v-77.19a.75.75 0 0 1 1.5 0v77.19a.75.75 0 0 1 -.75.75z"/><path d="m243.15 154.36a.75.75 0 0 1 -.75-.75v-77.19a.75.75 0 0 1 1.5 0v77.19a.75.75 0 0 1 -.75.75z"/><path d="m134.15 235a.75.75 0 0 1 -.75-.75v-77.18a.75.75 0 0 1 1.5 0v77.19a.75.75 0 0 1 -.75.74z"/><path d="m88.84 208.85a.75.75 0 0 1 -.75-.75v-77.19a.75.75 0 0 1 1.5 0v77.19a.75.75 0 0 1 -.75.75z"/><path d="m162.59 154.82a.75.75 0 0 1 -.75-.75l.16-75.16a.75.75 0 0 1 .75-.75.75.75 0 0 1 .75.75l-.21 75.16a.75.75 0 0 1 -.7.75z"/><path d="m198.5 126.42a.75.75 0 0 1 -.75-.75v-77.18a.75.75 0 1 1 1.5 0v77.18a.75.75 0 0 1 -.75.75z"/><path d="m120 155a.75.75 0 0 1 -.75-.75v-77.16a.75.75 0 0 1 1.5 0v77.19a.75.75 0 0 1 -.75.72z"/><path d="m43.5 182.67a.75.75 0 0 1 -.75-.75v-77.18a.75.75 0 0 1 1.5 0v77.18a.75.75 0 0 1 -.75.75z"/><path d="m.75 158a.75.75 0 0 1 -.75-.75v-77.2a.75.75 0 1 1 1.5 0v77.19a.75.75 0 0 1 -.75.76z"/><path d="m370.35 165.68a.75.75 0 0 1 -.75-.75v-77.16a.75.75 0 0 1 1.5 0v77.16a.75.75 0 0 1 -.75.75z"/><path d="m151.43 245a.75.75 0 0 1 -.75-.75v-77.18a.75.75 0 0 1 1.5 0v77.17a.75.75 0 0 1 -.75.76z"/><path d="m193.72 269.4a.75.75 0 0 1 -.75-.75v-77a.75.75 0 0 1 1.5 0v77a.75.75 0 0 1 -.75.75z"/><path d="m286 236.09a.75.75 0 0 1 -.75-.75v-77.17a.75.75 0 1 1 1.5 0v77.17a.75.75 0 0 1 -.75.75z"/><path d="m300.7 244.59a.75.75 0 0 1 -.75-.75v-77.17a.75.75 0 0 1 1.5 0v77.17a.75.75 0 0 1 -.75.75z"/><rect height="78.65" rx=".75" width="1.5" x="323.34" y="144.19"/><path d="m363.59 208.58a.75.75 0 0 1 -.75-.75v-77.19a.75.75 0 0 1 1.5 0v77.19a.75.75 0 0 1 -.75.75z"/><path d="m390.64 226.84a.75.75 0 0 1 -.75-.75v-77.17a.75.75 0 0 1 1.5 0v77.17a.75.75 0 0 1 -.75.75z"/><path d="m461.54 230.23a.75.75 0 0 1 -.75-.75l.12-78.71a.75.75 0 0 1 .75-.75.75.75 0 0 1 .75.75l-.12 78.71a.75.75 0 0 1 -.75.75z"/><path d="m347.86 266.18a.75.75 0 0 1 -.75-.75v-77.17a.75.75 0 1 1 1.5 0v77.17a.75.75 0 0 1 -.75.75z"/><path d="m282.74 320.79a.75.75 0 0 1 -.74-.79v-77.12a.75.75 0 0 1 1.5 0v77.12a.75.75 0 0 1 -.76.79z"/><path d="m237.18 294.49a.75.75 0 0 1 -.75-.75v-77.16a.75.75 0 1 1 1.5 0v77.16a.75.75 0 0 1 -.75.75z"/><path d="m518.45 251.19a.75.75 0 0 1 -.75-.75v-77.19a.75.75 0 0 1 1.5 0v77.19a.75.75 0 0 1 -.75.75z"/><path d="m561.2 275.87a.75.75 0 0 1 -.75-.75v-77.18a.75.75 0 1 1 1.5 0v77.18a.75.75 0 0 1 -.75.75z"/><path d="m299.53 330.49a.75.75 0 0 1 -.75-.75v-77.18a.75.75 0 1 1 1.5 0v77.18a.75.75 0 0 1 -.75.75z"/><path d="m342.29 355.18a.75.75 0 0 1 -.75-.75v-77.19a.75.75 0 0 1 1.5 0v77.19a.75.75 0 0 1 -.75.75z"/><path d="m416.47 386.56a.75.75 0 0 1 -.75-.75l-.23-78.6a.76.76 0 0 1 .75-.75.75.75 0 0 1 .75.75l.23 78.6a.75.75 0 0 1 -.75.75z"/><path d="m563.77 403a.75.75 0 0 1 -.75-.75v-77.25a.75.75 0 0 1 1.5 0v77.28a.75.75 0 0 1 -.75.72z"/><path d="m485.15 384.67a.75.75 0 0 1 -.75-.75l-.46-79.73a.75.75 0 0 1 .75-.75.75.75 0 0 1 .75.75l.46 79.73a.75.75 0 0 1 -.75.75z"/><path d="m535.27 386.56a.75.75 0 0 1 -.75-.75v-77.28a.75.75 0 0 1 1.5 0v77.28a.75.75 0 0 1 -.75.75z"/><path d="m578.74 370.78a.75.75 0 0 1 -.74-.78v-77.24a.75.75 0 0 1 1.5 0v77.24a.75.75 0 0 1 -.76.78z"/><path d="m643 407.87a.75.75 0 0 1 -.75-.75v-77.28a.75.75 0 1 1 1.5 0v77.28a.75.75 0 0 1 -.75.75z"/><path d="m700.34 378.71a.75.75 0 0 1 -.75-.75l.22-77.24a.75.75 0 0 1 .75-.75.75.75 0 0 1 .75.75l-.22 77.28a.75.75 0 0 1 -.75.71z"/><path d="m637.7 381.7a.75.75 0 0 1 -.7-.7v-77.32a.75.75 0 0 1 1.5 0v77.32a.75.75 0 0 1 -.8.7z"/><path d="m533.77 437.63c-35.37 0-68.08-8.29-90.92-21.49-18-10.41-27.56-22.45-27.58-34.81 0-14 11.54-27.82 34.36-41.08 30.83-17.91 71.44-28.15 114.36-28.82 40.92-.66 79.46 7.69 105.75 22.86 21.67 12.47 33.48 28.83 31.57 43.74a.75.75 0 0 1 -.71.65l-62.86 3a.71.71 0 0 1 -.6-.26.75.75 0 0 1 -.17-.63c1.37-7.35-5.86-16.78-18.41-24-33.39-19.27-86.39-12.41-116.35 5-11.14 6.48-16.79 12.88-16.78 19 0 5.25 4.23 10.35 12.56 15.16 17.11 9.88 40.87 12.11 63.88 6.05l-27-15.57a.75.75 0 0 1 .12-1.35l43.47-15.78a.75.75 0 0 1 .63.06l64.22 37.12a.75.75 0 0 1 0 1.3l-4.65 2.7c-32.94 19.17-70.19 27.15-104.89 27.15zm34.61-124.73c-1.46 0-2.91 0-4.38 0-42.67.67-83 10.83-113.63 28.62-22 12.79-33.63 26.54-33.61 39.78 0 11.8 9.29 23.38 26.83 33.51 44.89 25.94 128.26 32.77 194.34-5.67l3.53-2.05-62.8-36.3-41.66 15.15 27.1 15.65a.75.75 0 0 1 .34.43.75.75 0 0 1 -.52.92c-23.92 6.74-48.86 4.6-66.74-5.73-8.82-5.09-13.3-10.63-13.31-16.45 0-6.71 5.89-13.55 17.53-20.32 30.32-17.62 84-24.54 117.85-5 12.6 7.28 20 16.85 19.26 24.67l61.32-2.93c1.42-14.13-10.08-29.65-30.9-41.63-25.07-14.46-61.54-22.65-100.55-22.65z"/><path d="m342.29 355.26a.75.75 0 0 1 -.37-.1l-42.76-24.68a.75.75 0 0 1 .12-1.35l218.92-79.3a.75.75 0 0 1 .63.06l42.75 24.68a.75.75 0 0 1 -.12 1.35l-218.91 79.3a.74.74 0 0 1 -.26.04zm-40.99-25.26 41.06 23.7 217.07-78.63-41.05-23.7z"/><path d="m359.14 239.19c-4.35 0-8.34-.72-11.33-2.45l-24.06-13.89a.75.75 0 0 1 .12-1.35l39.46-14.29a.75.75 0 0 1 .63.06l24.04 13.88c2.46 1.42 3.61 3.07 3.4 4.9a.65.65 0 0 1 0 .28c-.37 1.9-2.26 3.86-5.63 5.82a58.9 58.9 0 0 1 -26.63 7.04zm-33.24-16.83 22.66 13.08c8.76 5.05 27.46.66 36.49-4.59 3.45-2 4.56-3.57 4.86-4.58a.64.64 0 0 1 0-.21c.23-1.25-.66-2.47-2.64-3.61l-23.76-13.71z"/><path d="m282.74 320.9a.75.75 0 0 1 -.37-.1l-45.56-26.32a.75.75 0 0 1 -.09-1.24l62.65-49.24-13.44-7.77-92 33.33a.74.74 0 0 1 -.63-.06l-42.25-24.5a.75.75 0 0 1 .12-1.35l218.92-79.35a.74.74 0 0 1 .63.06l76.14 44c10.3 5.95 15.53 12.56 15.54 19.65 0 8.11-6.89 16.41-20 24-21.64 12.57-59.17 21.85-94.39 14.33l-64.84 54.38a.75.75 0 0 1 -.43.18zm-44.23-27.17 44.15 25.5 64.72-54.23a.75.75 0 0 1 .64-.16c34.92 7.58 72.21-1.61 93.67-14.08 12.58-7.31 19.23-15.17 19.21-22.71 0-6.52-5-12.7-14.79-18.36l-75.84-43.83-217.07 78.65 40.6 23.57 92-33.33a.75.75 0 0 1 .63.06l14.7 8.5a.75.75 0 0 1 .09 1.24z"/><path d="m134.15 235.1a.75.75 0 0 1 -.37-.1l-45.32-26.17a.75.75 0 0 1 -.07-1.25l72.1-52.71-40.39.25-76.35 27.6a.75.75 0 0 1 -.63-.06l-42.74-24.66a.75.75 0 0 1 .12-1.35l218.9-79.32a.74.74 0 0 1 .63.06l42.76 24.68a.75.75 0 0 1 -.12 1.35l-59.82 21.58 98.58-.5a1.24 1.24 0 0 1 .38.1l48.12 27.78a.75.75 0 0 1 -.37 1.4l-106.17.67-108.79 80.55a.75.75 0 0 1 -.45.1zm-43.94-27 43.89 25.35 108.6-80.37a.75.75 0 0 1 .44-.15l103.65-.65-45.55-26.28-102.74.52a.75.75 0 0 1 -.25-1.46l62.4-22.5-41.06-23.7-217.07 78.63 41.05 23.7 76.14-27.52a.75.75 0 0 1 .25 0l42.84-.27a.75.75 0 0 1 .44 1.36z"/></g></svg>

<svg xmlns="http://www.w3.org/2000/svg" viewBox="0 0 701.5 437.63"><defs><style>.cls-1{fill:#fff;}</style></defs><title>Asset 1</title><g id="Layer_2" data-name="Layer 2"><g id="Layer_1-2" data-name="Layer 1"><g id="Layer_2-2" data-name="Layer 2"><g id="top"><g id="G"><path class="cls-1" d="M533.77,360.36c-35.37,0-68.08-8.29-90.92-21.49-18-10.41-27.56-22.45-27.58-34.81,0-14,11.54-27.82,34.36-41.08,30.83-17.91,71.44-28.15,114.36-28.82,40.92-.64,79.47,7.7,105.75,22.87,21.67,12.47,33.48,28.83,31.57,43.74a.75.75,0,0,1-.71.65l-62.86,3a.71.71,0,0,1-.6-.26.75.75,0,0,1-.17-.63c1.37-7.35-5.86-16.78-18.41-24-33.39-19.27-86.39-12.41-116.35,5-11.14,6.48-16.79,12.88-16.78,19,0,5.25,4.23,10.35,12.56,15.16,17.1,9.88,40.85,12.11,63.85,6.06l-27-15.55a.75.75,0,0,1,.12-1.35l43.47-15.78a.75.75,0,0,1,.63.06l64.23,37.08a.75.75,0,0,1,0,1.3l-4.65,2.7C605.72,352.37,568.47,360.36,533.77,360.36Zm34.6-124.74c-1.46,0-2.91,0-4.37,0-42.66.67-83,10.83-113.63,28.62-22,12.79-33.63,26.54-33.61,39.78,0,11.8,9.29,23.38,26.83,33.51,44.89,25.94,128.26,32.77,194.34-5.67l3.53-2-62.8-36.26L537,308.71l27.12,15.65a.75.75,0,0,1-.17,1.37c-23.91,6.74-48.86,4.6-66.74-5.73-8.82-5.09-13.3-10.63-13.31-16.45,0-6.71,5.89-13.55,17.53-20.32,30.32-17.62,84-24.54,117.85-5,12.6,7.28,20,16.85,19.26,24.67L699.89,300c1.42-14.13-10.08-29.64-30.9-41.63C643.86,243.83,607.39,235.63,568.37,235.63Z"/></g><g id="I"><path class="cls-1" d="M342.29,278a.75.75,0,0,1-.37-.1l-42.76-24.68a.75.75,0,0,1,.12-1.35l218.92-79.31a.74.74,0,0,1,.63.06l42.75,24.69a.75.75,0,0,1-.12,1.35l-218.91,79.3A.74.74,0,0,1,342.29,278Zm-41-25.27,41.06,23.7,217.07-78.63-41.05-23.71Z"/></g><g id="R-hole"><path class="cls-1" d="M359.14,161.92c-4.35,0-8.34-.72-11.33-2.45l-24.06-13.89a.75.75,0,0,1,.12-1.35l39.46-14.29a.75.75,0,0,1,.63.06L388,143.88c2.46,1.42,3.61,3.07,3.4,4.9a.65.65,0,0,1,0,.28c-.37,1.9-2.26,3.86-5.63,5.82A58.92,58.92,0,0,1,359.14,161.92ZM325.9,145.09l22.66,13.08c8.75,5.05,27.46.66,36.49-4.59,3.45-2,4.56-3.57,4.86-4.58a.65.65,0,0,1,0-.21c.23-1.25-.66-2.47-2.64-3.61l-23.76-13.72Z"/></g><g id="R"><path class="cls-1" d="M282.74,243.63a.75.75,0,0,1-.37-.1l-45.56-26.32a.75.75,0,0,1-.09-1.24l62.65-49.2L285.93,159,194,192.33a.75.75,0,0,1-.63-.06l-42.29-24.55a.75.75,0,0,1,.12-1.35L370.1,87.07a.74.74,0,0,1,.63.06l76.13,44c10.3,5.95,15.53,12.56,15.54,19.65,0,8.1-6.89,16.41-20,24-21.64,12.57-59.18,21.85-94.39,14.33l-64.84,54.38A.75.75,0,0,1,282.74,243.63Zm-44.23-27.16L282.66,242l64.72-54.28a.74.74,0,0,1,.64-.16c34.92,7.58,72.21-1.61,93.67-14.09,12.58-7.31,19.23-15.16,19.21-22.7,0-6.52-5-12.7-14.79-18.36L370.29,88.59,153.22,167.23l40.6,23.57,91.93-33.33a.75.75,0,0,1,.63.06l14.7,8.51a.75.75,0,0,1,.09,1.24Z"/></g><g id="K"><path class="cls-1" d="M134.15,157.82a.75.75,0,0,1-.37-.1L88.46,131.56a.75.75,0,0,1-.07-1.25l72.1-52.71-40.39.24L43.75,105.45a.75.75,0,0,1-.63-.06L.38,80.7a.75.75,0,0,1,.12-1.35L219.4,0A.74.74,0,0,1,220,.1l42.76,24.68a.75.75,0,0,1-.12,1.35L202.85,47.72l98.58-.51a.61.61,0,0,1,.38.1l48.12,27.78a.75.75,0,0,1-.37,1.4l-106.17.68-108.8,80.5A.75.75,0,0,1,134.15,157.82Zm-43.94-27,43.89,25.34L242.7,75.82a.75.75,0,0,1,.44-.15L346.79,75l-45.55-26.3-102.74.53h0a.75.75,0,0,1-.25-1.46l62.4-22.51L219.59,1.57,2.52,80.21l41.05,23.71,76.14-27.53a.75.75,0,0,1,.25,0l42.84-.26a.7.7,0,0,1,.72.52.75.75,0,0,1-.27.84Z"/></g></g><g id="sides"><path class="cls-1" d="M219.21,78.69h0a.75.75,0,0,1-.75-.75L218.91.75a.75.75,0,0,1,.75-.75h0a.75.75,0,0,1,.75.75L220,77.95A.75.75,0,0,1,219.21,78.69Z"/><path class="cls-1" d="M262.2,103.43a.78.78,0,0,1-.75-.75l.22-77.25a.75.75,0,0,1,.75-.75h0a.75.75,0,0,1,.75.75L263,102.68A.75.75,0,0,1,262.2,103.43Z"/><path class="cls-1" d="M301.44,125.9a.75.75,0,0,1-.75-.75V48a.75.75,0,0,1,1.5,0v77.19A.75.75,0,0,1,301.44,125.9Z"/><path class="cls-1" d="M349.55,153.68a.75.75,0,0,1-.75-.75V75.74a.75.75,0,0,1,1.5,0v77.19A.75.75,0,0,1,349.55,153.68Z"/><path class="cls-1" d="M243.15,154.36a.75.75,0,0,1-.75-.75V76.42a.75.75,0,0,1,1.5,0v77.19A.75.75,0,0,1,243.15,154.36Z"/><path class="cls-1" d="M134.15,235a.75.75,0,0,1-.75-.75V157.07a.75.75,0,0,1,1.5,0v77.19A.75.75,0,0,1,134.15,235Z"/><path class="cls-1" d="M88.84,208.85a.75.75,0,0,1-.75-.75V130.91a.75.75,0,0,1,1.5,0V208.1A.75.75,0,0,1,88.84,208.85Z"/><path class="cls-1" d="M162.59,154.82h0a.75.75,0,0,1-.75-.75L162,78.91a.75.75,0,0,1,.75-.75h0a.75.75,0,0,1,.75.75l-.21,75.16A.75.75,0,0,1,162.59,154.82Z"/><path class="cls-1" d="M198.5,126.42a.75.75,0,0,1-.75-.75V48.49a.75.75,0,1,1,1.5,0v77.18A.75.75,0,0,1,198.5,126.42Z"/><path class="cls-1" d="M120,155a.75.75,0,0,1-.75-.75V77.09a.75.75,0,0,1,1.5,0v77.19A.75.75,0,0,1,120,155Z"/><path class="cls-1" d="M43.5,182.67a.75.75,0,0,1-.75-.75V104.74a.75.75,0,0,1,1.5,0v77.18A.75.75,0,0,1,43.5,182.67Z"/><path class="cls-1" d="M.75,158a.75.75,0,0,1-.75-.75V80.05a.75.75,0,1,1,1.5,0v77.19A.75.75,0,0,1,.75,158Z"/><path class="cls-1" d="M370.35,165.68a.75.75,0,0,1-.75-.75V87.77a.75.75,0,0,1,1.5,0v77.16A.75.75,0,0,1,370.35,165.68Z"/><path class="cls-1" d="M151.43,245a.75.75,0,0,1-.75-.75V167.07a.75.75,0,0,1,1.5,0v77.17A.75.75,0,0,1,151.43,245Z"/><path class="cls-1" d="M193.72,269.4a.75.75,0,0,1-.75-.75v-77a.75.75,0,0,1,1.5,0v77A.75.75,0,0,1,193.72,269.4Z"/><path class="cls-1" d="M286,236.09a.75.75,0,0,1-.75-.75V158.17a.75.75,0,1,1,1.5,0v77.17A.75.75,0,0,1,286,236.09Z"/><path class="cls-1" d="M300.7,244.59a.75.75,0,0,1-.75-.75V166.67a.75.75,0,0,1,1.5,0v77.17A.75.75,0,0,1,300.7,244.59Z"/><rect class="cls-1" x="323.34" y="144.19" width="1.5" height="78.65" rx="0.75" ry="0.75"/><path class="cls-1" d="M363.59,208.58a.75.75,0,0,1-.75-.75V130.64a.75.75,0,0,1,1.5,0v77.19A.75.75,0,0,1,363.59,208.58Z"/><path class="cls-1" d="M390.64,226.84a.75.75,0,0,1-.75-.75V148.92a.75.75,0,0,1,1.5,0v77.17A.75.75,0,0,1,390.64,226.84Z"/><path class="cls-1" d="M461.54,230.23h0a.75.75,0,0,1-.75-.75l.12-78.71a.75.75,0,0,1,.75-.75h0a.75.75,0,0,1,.75.75l-.12,78.71A.75.75,0,0,1,461.54,230.23Z"/><path class="cls-1" d="M347.86,266.18a.75.75,0,0,1-.75-.75V188.26a.75.75,0,1,1,1.5,0v77.17A.75.75,0,0,1,347.86,266.18Z"/><path class="cls-1" d="M282.74,320.79A.75.75,0,0,1,282,320V242.88a.75.75,0,0,1,1.5,0V320A.75.75,0,0,1,282.74,320.79Z"/><path class="cls-1" d="M237.18,294.49a.75.75,0,0,1-.75-.75V216.58a.75.75,0,1,1,1.5,0v77.16A.75.75,0,0,1,237.18,294.49Z"/><path class="cls-1" d="M518.45,251.19a.75.75,0,0,1-.75-.75V173.25a.75.75,0,0,1,1.5,0v77.19A.75.75,0,0,1,518.45,251.19Z"/><path class="cls-1" d="M561.2,275.87a.75.75,0,0,1-.75-.75V197.94a.75.75,0,1,1,1.5,0v77.18A.75.75,0,0,1,561.2,275.87Z"/><path class="cls-1" d="M299.53,330.49a.75.75,0,0,1-.75-.75V252.56a.75.75,0,1,1,1.5,0v77.18A.75.75,0,0,1,299.53,330.49Z"/><path class="cls-1" d="M342.29,355.18a.75.75,0,0,1-.75-.75V277.24a.75.75,0,0,1,1.5,0v77.19A.75.75,0,0,1,342.29,355.18Z"/><path class="cls-1" d="M416.47,386.56a.75.75,0,0,1-.75-.75l-.23-78.6a.76.76,0,0,1,.75-.75.75.75,0,0,1,.75.75l.23,78.6a.75.75,0,0,1-.75.75Z"/><path class="cls-1" d="M563.77,403a.75.75,0,0,1-.75-.75V325a.75.75,0,0,1,1.5,0v77.28A.75.75,0,0,1,563.77,403Z"/><path class="cls-1" d="M485.15,384.67a.75.75,0,0,1-.75-.75l-.46-79.73a.75.75,0,0,1,.75-.75h0a.75.75,0,0,1,.75.75l.46,79.73a.75.75,0,0,1-.75.75Z"/><path class="cls-1" d="M535.27,386.56a.75.75,0,0,1-.75-.75V308.53a.75.75,0,0,1,1.5,0v77.28A.75.75,0,0,1,535.27,386.56Z"/><path class="cls-1" d="M578.74,370.78A.75.75,0,0,1,578,370V292.76a.75.75,0,0,1,1.5,0V370A.75.75,0,0,1,578.74,370.78Z"/><path class="cls-1" d="M643,407.87a.75.75,0,0,1-.75-.75V329.84a.75.75,0,1,1,1.5,0v77.28A.75.75,0,0,1,643,407.87Z"/><path class="cls-1" d="M700.34,378.71h0a.75.75,0,0,1-.75-.75l.22-77.24a.75.75,0,0,1,.75-.75h0a.75.75,0,0,1,.75.75L701.09,378A.75.75,0,0,1,700.34,378.71Z"/><path class="cls-1" d="M637.7,381.7A.75.75,0,0,1,637,381V303.68a.75.75,0,0,1,1.5,0V381A.75.75,0,0,1,637.7,381.7Z"/></g><g id="bottom"><g id="G-2"><path class="cls-1" d="M533.77,437.63c-35.37,0-68.08-8.29-90.92-21.49-18-10.41-27.56-22.45-27.58-34.81,0-14,11.54-27.82,34.36-41.08,30.83-17.91,71.44-28.15,114.36-28.82,40.92-.66,79.46,7.69,105.75,22.86,21.67,12.47,33.48,28.83,31.57,43.74a.75.75,0,0,1-.71.65l-62.86,3a.71.71,0,0,1-.6-.26.75.75,0,0,1-.17-.63c1.37-7.35-5.86-16.78-18.41-24-33.39-19.27-86.39-12.41-116.35,5-11.14,6.48-16.79,12.88-16.78,19,0,5.25,4.23,10.35,12.56,15.16,17.11,9.88,40.87,12.11,63.88,6.05l-27-15.57a.75.75,0,0,1,.12-1.35l43.47-15.78a.75.75,0,0,1,.63.06l64.22,37.12a.75.75,0,0,1,0,1.3l-4.65,2.7C605.72,429.65,568.47,437.63,533.77,437.63ZM568.38,312.9c-1.46,0-2.91,0-4.38,0-42.67.67-83,10.83-113.63,28.62-22,12.79-33.63,26.54-33.61,39.78,0,11.8,9.29,23.38,26.83,33.51,44.89,25.94,128.26,32.77,194.34-5.67l3.53-2.05-62.8-36.3L537,385.94l27.1,15.65a.75.75,0,0,1,.34.43l0,0a.75.75,0,0,1-.52.92c-23.92,6.74-48.86,4.6-66.74-5.73-8.82-5.09-13.3-10.63-13.31-16.45,0-6.71,5.89-13.55,17.53-20.32,30.32-17.62,84-24.54,117.85-5,12.6,7.28,20,16.85,19.26,24.67l61.32-2.93c1.42-14.13-10.08-29.65-30.9-41.63C643.86,321.09,607.39,312.9,568.38,312.9Z"/></g><g id="I-2"><path class="cls-1" d="M342.29,355.26a.75.75,0,0,1-.37-.1l-42.76-24.68a.75.75,0,0,1,.12-1.35l218.92-79.3a.75.75,0,0,1,.63.06l42.75,24.68a.75.75,0,0,1-.12,1.35l-218.91,79.3A.74.74,0,0,1,342.29,355.26ZM301.3,330l41.06,23.7,217.07-78.63-41.05-23.7Z"/></g><g id="R-hole-2"><path class="cls-1" d="M359.14,239.19c-4.35,0-8.34-.72-11.33-2.45l-24.06-13.89a.75.75,0,0,1,.12-1.35l39.46-14.29a.75.75,0,0,1,.63.06L388,221.15c2.46,1.42,3.61,3.07,3.4,4.9a.65.65,0,0,1,0,.28c-.37,1.9-2.26,3.86-5.63,5.82A58.9,58.9,0,0,1,359.14,239.19ZM325.9,222.36l22.66,13.08c8.76,5.05,27.46.66,36.49-4.59,3.45-2,4.56-3.57,4.86-4.58a.64.64,0,0,1,0-.21c.23-1.25-.66-2.47-2.64-3.61l-23.76-13.71Z"/></g><g id="R-2"><path class="cls-1" d="M282.74,320.9a.75.75,0,0,1-.37-.1l-45.56-26.32a.75.75,0,0,1-.09-1.24L299.37,244l-13.44-7.77-92,33.33a.74.74,0,0,1-.63-.06L151.05,245a.75.75,0,0,1,.12-1.35L370.09,164.3a.74.74,0,0,1,.63.06l76.14,44c10.3,5.95,15.53,12.56,15.54,19.65,0,8.11-6.89,16.41-20,24-21.64,12.57-59.17,21.85-94.39,14.33l-64.84,54.38A.75.75,0,0,1,282.74,320.9Zm-44.23-27.17,44.15,25.5L347.38,265a.75.75,0,0,1,.64-.16c34.92,7.58,72.21-1.61,93.67-14.08,12.58-7.31,19.23-15.17,19.21-22.71,0-6.52-5-12.7-14.79-18.36h0l-75.84-43.83L153.2,244.51l40.6,23.57,92-33.33a.75.75,0,0,1,.63.06l14.7,8.5a.75.75,0,0,1,.09,1.24Z"/></g><g id="K-2"><path class="cls-1" d="M134.15,235.1a.75.75,0,0,1-.37-.1L88.46,208.83a.75.75,0,0,1-.07-1.25l72.1-52.71-40.39.25-76.35,27.6a.75.75,0,0,1-.63-.06L.38,158a.75.75,0,0,1,.12-1.35L219.4,77.33a.74.74,0,0,1,.63.06l42.76,24.68a.75.75,0,0,1-.12,1.35L202.85,125l98.58-.5a1.24,1.24,0,0,1,.38.1l48.12,27.78a.75.75,0,0,1-.37,1.4l-106.17.67L134.6,235A.75.75,0,0,1,134.15,235.1Zm-43.94-27,43.89,25.35,108.6-80.37a.75.75,0,0,1,.44-.15l103.65-.65L301.24,126l-102.74.52h0a.75.75,0,0,1-.25-1.46l62.4-22.5-41.06-23.7L2.52,157.49l41.05,23.7,76.14-27.52a.75.75,0,0,1,.25,0l42.84-.27h0a.75.75,0,0,1,.44,1.36Z"/></g></g></g></g></g></svg>
